icons/evolvere-blue-folders-flat-vivid-dark-fallback/apps/64/deluge.svg

<?xml version="1.0" encoding="UTF-8" standalone="no"?>
<!-- Created with Inkscape (http://www.inkscape.org/) -->

<svg
   xmlns:dc="http://purl.org/dc/elements/1.1/"
   xmlns:cc="http://creativecommons.org/ns#"
   xmlns:rdf="http://www.w3.org/1999/02/22-rdf-syntax-ns#"
   xmlns:svg="http://www.w3.org/2000/svg"
   xmlns="http://www.w3.org/2000/svg"
   xmlns:sodipodi="http://sodipodi.sourceforge.net/DTD/sodipodi-0.dtd"
   xmlns:inkscape="http://www.inkscape.org/namespaces/inkscape"
   width="64"
   height="64"
   id="svg13094"
   version="1.1"
   inkscape:version="0.91+devel r"
   sodipodi:docname="deluge.svg">
  <sodipodi:namedview
     id="base"
     pagecolor="#ffffff"
     bordercolor="#666666"
     borderopacity="1.0"
     inkscape:pageopacity="0"
     inkscape:pageshadow="2"
     inkscape:zoom="11.313709"
     inkscape:cx="18.348611"
     inkscape:cy="33.395138"
     inkscape:document-units="px"
     inkscape:current-layer="svg13094"
     showgrid="true"
     inkscape:snap-bbox="true"
     inkscape:bbox-paths="true"
     inkscape:bbox-nodes="true"
     inkscape:snap-bbox-edge-midpoints="true"
     inkscape:snap-bbox-midpoints="true"
     inkscape:object-paths="true"
     inkscape:snap-intersection-paths="true"
     inkscape:object-nodes="true"
     inkscape:snap-smooth-nodes="true"
     inkscape:snap-midpoints="true"
     inkscape:snap-object-midpoints="true"
     inkscape:snap-center="true"
     showguides="true"
     inkscape:guide-bbox="true"
     inkscape:window-width="1920"
     inkscape:window-height="1023"
     inkscape:window-x="-10"
     inkscape:window-y="35"
     inkscape:window-maximized="1"
     inkscape:snap-global="true"
     fit-margin-top="0"
     fit-margin-left="0"
     fit-margin-right="0"
     fit-margin-bottom="0"
     showborder="true"
     inkscape:showpageshadow="false"
     inkscape:snap-page="true">
    <inkscape:grid
       originy="18px"
       originx="1.6362304e-08px"
       snapvisiblegridlinesonly="true"
       enabled="true"
       visible="true"
       empspacing="5"
       id="grid3075"
       type="xygrid" />
  </sodipodi:namedview>
  <defs
     id="defs13096" />
  <metadata
     id="metadata13099">
    <rdf:RDF>
      <cc:Work
         rdf:about="">
        <dc:format>image/svg+xml</dc:format>
        <dc:type
           rdf:resource="http://purl.org/dc/dcmitype/StillImage" />
        <dc:title></dc:title>
      </cc:Work>
    </rdf:RDF>
  </metadata>
  <path
     inkscape:connector-curvature="0"
     style="color:#000000;fill:#2e78db;fill-opacity:1;fill-rule:nonzero;stroke:none;stroke-width:2.28571415;marker:none;visibility:visible;display:inline;overflow:visible;enable-background:accumulate"
     d="m 0,4 0,30 0,28 2,2 30,0 30,0 2,-2 L 64,34 64,4 32,4 0,4 z"
     id="path3983" />
  <path
     inkscape:connector-curvature="0"
     style="color:#000000;fill:#388ae5;fill-opacity:1;fill-rule:nonzero;stroke:none;stroke-width:1.9991888;marker:none;visibility:visible;display:inline;overflow:visible;enable-background:accumulate;opacity:1;stroke-linecap:butt;stroke-linejoin:miter;stroke-miterlimit:4;stroke-dasharray:none;stroke-dashoffset:0;stroke-opacity:1"
     d="m 26,3.999999 c 0,3.9999989 1e-6,10.000001 -4,14 4.507487,-4.094099 8.086893,-4.374117 10.5,-4.5 2.413107,0.125883 5.992513,0.405901 10.5,4.5 C 38.999999,14 39,7.9999979 39,3.999999 l -6.5,0 -6.5,0 z"
     id="use3790" />
  <path
     id="path6502"
     d="M 2 0 L 0 1 L 0 4 L 32 4 L 64 4 L 64 1 L 62 0 L 32 0 L 2 0 z "
     style="color:#000000;fill:#7dcbff;fill-opacity:1;fill-rule:nonzero;stroke:none;marker:none;visibility:visible;display:inline;overflow:visible;enable-background:accumulate" />
  <rect
     style="color:#000000;fill:#bee5ff;fill-opacity:1;fill-rule:nonzero;stroke:none;stroke-width:1;marker:none;visibility:visible;display:inline;overflow:visible;enable-background:accumulate"
     id="rect3792"
     width="13"
     height="4"
     x="26"
     y="-1e-06" />
  <path
     inkscape:connector-curvature="0"
     style="fill:#529deb;fill-opacity:1"
     id="path3028"
     d="M 64,6 62,4 64,3 z" />
  <g
     transform="translate(-0.62500009,0.082283)"
     inkscape:export-ydpi="90"
     inkscape:export-xdpi="90"
     inkscape:export-filename="folder.png"
     id="g3043" />
  <g
     style="fill:#ffffff"
     inkscape:label="#g3701"
     transform="matrix(1.0385892,0,0,1.0385892,1214.7222,1878.8121)"
     id="scalable" />
  <path
     id="path4298"
     d="M 0,3 0,6 2,4 Z"
     style="fill:#a7dcff;fill-opacity:1;fill-rule:nonzero"
     inkscape:connector-curvature="0"
     sodipodi:nodetypes="cccc" />
  <path
     sodipodi:nodetypes="sssss"
     inkscape:connector-curvature="0"
     id="path3165"
     d="M 50.873633,24.56036 C 60.67271,34.359437 62.071254,48.848337 53.997367,56.922224 45.92348,64.996111 31.434579,63.597568 21.635502,53.798492 11.836426,43.999415 10.437883,29.510514 18.51177,21.436626 26.585657,13.362739 41.074557,14.761284 50.873633,24.56036 Z"
     style="color:#000000;display:inline;overflow:visible;visibility:visible;opacity:1;fill:#003ba4;fill-opacity:0.14669052;fill-rule:nonzero;stroke:none;stroke-width:1;stroke-linecap:butt;stroke-linejoin:miter;stroke-miterlimit:4;stroke-dasharray:none;stroke-dashoffset:0;stroke-opacity:1;marker:none;enable-background:accumulate" />
  <path
     style="color:#000000;display:inline;overflow:visible;visibility:visible;fill:#388ae5;fill-opacity:1;fill-rule:nonzero;stroke:none;stroke-width:1.99918878;marker:none;enable-background:accumulate"
     d="m 49.595544,33.171456 c 0,9.759146 -7.63434,17.670498 -17.051777,17.670498 -9.417437,0 -17.051779,-7.911352 -17.051779,-17.670498 0,-9.759146 7.634342,-19.670499 17.051779,-19.670499 9.417437,0 17.051777,9.911353 17.051777,19.670499 z"
     id="path3017"
     inkscape:connector-curvature="0"
     sodipodi:nodetypes="sssss" />
  <circle
     r="6.875"
     cy="27.125"
     cx="29.875"
     id="circle4238"
     style="color:#000000;display:inline;overflow:visible;visibility:visible;opacity:1;fill:#b8f4ff;fill-opacity:0.45438286;fill-rule:nonzero;stroke:none;stroke-width:1.61699092;stroke-linecap:butt;stroke-linejoin:miter;stroke-miterlimit:4;stroke-dasharray:none;stroke-dashoffset:0;stroke-opacity:1;marker:none;enable-background:accumulate" />
  <circle
     style="color:#000000;display:inline;overflow:visible;visibility:visible;opacity:1;fill:#b8f4ff;fill-opacity:0.45438284;fill-rule:nonzero;stroke:none;stroke-width:0.86729509;stroke-linecap:butt;stroke-linejoin:miter;stroke-miterlimit:4;stroke-dasharray:none;stroke-dashoffset:0;stroke-opacity:1;marker:none;enable-background:accumulate"
     id="path4236"
     cx="41"
     cy="42"
     r="3.6875" />
</svg>

<svg xmlns="http://www.w3.org/2000/svg" viewBox="0 0 64 64"><g color="#000"><path d="m0 4v30 28l2 2h30 30l2-2v-28-30h-32-32" fill="#2e78db"/><path d="m26 4c0 4 0 10-4 14 4.507-4.094 8.09-4.374 10.5-4.5 2.413.126 5.993.406 10.5 4.5-4-4-4-10-4-14h-6.5-6.5" fill="#388ae5"/><path d="m2 0l-2 1v3h32 32v-3l-2-1h-30-30" fill="#7dcbff"/><path fill="#bee5ff" d="m26 0h13v4h-13z"/></g><path d="m64 6l-2-2 2-1z" fill="#529deb"/><path d="m0 3v3l2-2" fill="#a7dcff"/><g color="#000"><path d="m50.874 24.56c9.799 9.799 11.198 24.288 3.124 32.362-8.07 8.07-22.563 6.675-32.362-3.124-9.799-9.799-11.198-24.288-3.124-32.362 8.07-8.07 22.563-6.675 32.362 3.124" fill-opacity=".147" fill="#003ba4"/><path d="m49.596 33.17c0 9.759-7.634 17.67-17.05 17.67-9.417 0-17.05-7.911-17.05-17.67 0-9.759 7.634-19.67 17.05-19.67 9.417 0 17.05 9.911 17.05 19.67" fill="#388ae5"/><g fill="#b8f4ff" fill-opacity=".454"><circle r="6.875" cy="27.13" cx="29.875"/><circle cx="41" cy="42" r="3.688"/></g></g></svg>
